svg/timer.svg

<?xml version="1.0" encoding="UTF-8" standalone="no"?>
<svg
   xmlns:dc="http://purl.org/dc/elements/1.1/"
   xmlns:cc="http://creativecommons.org/ns#"
   xmlns:rdf="http://www.w3.org/1999/02/22-rdf-syntax-ns#"
   xmlns:svg="http://www.w3.org/2000/svg"
   xmlns="http://www.w3.org/2000/svg"
   xmlns:sodipodi="http://sodipodi.sourceforge.net/DTD/sodipodi-0.dtd"
   xmlns:inkscape="http://www.inkscape.org/namespaces/inkscape"
   class="ionicon"
   viewBox="0 0 512 512"
   version="1.1"
   id="svg6"
   sodipodi:docname="timer.svg"
   inkscape:version="1.0.2 (e86c8708, 2021-01-15)">
  <metadata
     id="metadata12">
    <rdf:RDF>
      <cc:Work
         rdf:about="">
        <dc:format>image/svg+xml</dc:format>
        <dc:type
           rdf:resource="http://purl.org/dc/dcmitype/StillImage" />
      </cc:Work>
    </rdf:RDF>
  </metadata>
  <defs
     id="defs10" />
  <sodipodi:namedview
     pagecolor="#ffffff"
     bordercolor="#666666"
     borderopacity="1"
     objecttolerance="10"
     gridtolerance="10"
     guidetolerance="10"
     inkscape:pageopacity="0"
     inkscape:pageshadow="2"
     inkscape:window-width="689"
     inkscape:window-height="480"
     id="namedview8"
     showgrid="false"
     inkscape:zoom="1.3027344"
     inkscape:cx="256"
     inkscape:cy="256"
     inkscape:window-x="44"
     inkscape:window-y="25"
     inkscape:window-maximized="0"
     inkscape:current-layer="svg6" />
  <title
     id="title2">Timer</title>
  <path
     style="color:#000000;font-style:normal;font-variant:normal;font-weight:normal;font-stretch:normal;font-size:medium;line-height:normal;font-family:sans-serif;font-variant-ligatures:normal;font-variant-position:normal;font-variant-caps:normal;font-variant-numeric:normal;font-variant-alternates:normal;font-variant-east-asian:normal;font-feature-settings:normal;font-variation-settings:normal;text-indent:0;text-align:start;text-decoration:none;text-decoration-line:none;text-decoration-style:solid;text-decoration-color:#000000;letter-spacing:normal;word-spacing:normal;text-transform:none;writing-mode:lr-tb;direction:ltr;text-orientation:mixed;dominant-baseline:auto;baseline-shift:baseline;text-anchor:start;white-space:normal;shape-padding:0;shape-margin:0;inline-size:0;clip-rule:nonzero;display:inline;overflow:visible;visibility:visible;isolation:auto;mix-blend-mode:normal;color-interpolation:sRGB;color-interpolation-filters:linearRGB;solid-color:#000000;solid-opacity:1;vector-effect:none;fill:#000000;fill-opacity:1;fill-rule:nonzero;stroke-width:1;stroke-linecap:butt;stroke-linejoin:miter;stroke-miterlimit:4;stroke-dasharray:none;stroke-dashoffset:0;stroke-opacity:1;color-rendering:auto;image-rendering:auto;shape-rendering:auto;text-rendering:auto;enable-background:accumulate;stop-color:#000000;stop-opacity:1;stroke:none;opacity:1"
     d="M 256,48 C 141.12,48 48,141.12 48,256 48,370.88 141.12,464 256,464 370.88,464 464,370.88 464,256 464,141.12 370.88,48 256,48 Z m -82.33,114.34 105,71 c 14.42253,10.3874 17.82552,30.43393 7.63881,44.99888 -10.18672,14.56496 -30.18421,18.24521 -44.88881,8.26112 -3.10461,-2.18947 -5.81053,-4.89539 -8,-8 l -71,-105 c -5.19884,-7.44749 3.87251,-16.51884 11.32,-11.32 z M 256,432 C 159,432 80,353.05 80,256 c -0.166566,-47.83725 19.307417,-93.64648 53.87,-126.72 5.5999,-5.58271 14.6882,-5.49281 20.17658,0.19957 5.48838,5.69237 5.24669,14.7779 -0.53658,20.17043 -29.00272,27.75974 -45.34538,66.20349 -45.21,106.35 0,81.44 66.26,147.7 147.7,147.7 81.44,0 147.7,-66.26 147.7,-147.7 0,-76.67 -58.72,-139.88 -133.55,-147 v 55 c 0,7.81483 -6.33517,14.14999 -14.15,14.14999 -7.81483,0 -14.15,-6.33516 -14.15,-14.14999 V 94.15 C 241.85,86.335171 248.18517,80 256,80 c 97.05,0 176,79 176,176 0,97 -78.95,176 -176,176 z"
     id="path4" />
</svg>

<svg xmlns="http://www.w3.org/2000/svg" width="512" height="512" viewBox="0 0 512 512"><title>ionicons-v5-g</title><path d="M256,48C141.12,48,48,141.12,48,256s93.12,208,208,208,208-93.12,208-208S370.88,48,256,48ZM173.67,162.34l105,71a32.5,32.5,0,0,1-37.25,53.26,33.21,33.21,0,0,1-8-8l-71-105a8.13,8.13,0,0,1,11.32-11.32ZM256,432C159,432,80,353.05,80,256a174.55,174.55,0,0,1,53.87-126.72,14.15,14.15,0,1,1,19.64,20.37A146.53,146.53,0,0,0,108.3,256c0,81.44,66.26,147.7,147.7,147.7S403.7,337.44,403.7,256c0-76.67-58.72-139.88-133.55-147V164a14.15,14.15,0,1,1-28.3,0V94.15A14.15,14.15,0,0,1,256,80C353.05,80,432,159,432,256S353.05,432,256,432Z"/></svg>
